X: 43237
T: Wizard Fingers, The
R: jig
M: 6/8
K: Amajor
E|AGA ECA|ACE Ace|agf ecA|FBB (B2E)|1 AGA ECA|FDB ECA|
DBG EAF|ECA A2:|2 AGA ECA|FDB ECA|dBG Aaf|ecA A2||
c|:ecA EAc|eaf ecA|EAc ecA|FBB B2d|1 ecA EAc|eaf ecA|
Ace dcB|{/d}cAA (A2c):|2 {/d}cAc BGB|AGA ECA|EAF EAF|ECA A2||

